packages/katcn/src/icons/svg/saveFile.svg

<svg width="24" height="25" viewBox="0 0 24 25" fill="none" xmlns="http://www.w3.org/2000/svg">
<path fill-rule="evenodd" clip-rule="evenodd" d="M2 5.78809C2 3.83056 3.55912 2.28809 5.51397 2.28809H14.6648C15.8768 2.28809 16.9247 2.82517 17.6828 3.57901L20.6742 6.55382C21.6144 7.3715 22 8.45838 22 9.58809V18.7881C22 20.7456 20.4409 22.2881 18.486 22.2881H16.8771C16.3248 22.2881 15.8771 21.8404 15.8771 21.2881V16.3881C15.8771 16.0456 15.6262 15.7881 15.2682 15.7881H8.73184C8.37384 15.7881 8.12291 16.0456 8.12291 16.3881V20.2881H13.7598C14.3121 20.2881 14.7598 20.7358 14.7598 21.2881C14.7598 21.8404 14.3121 22.2881 13.7598 22.2881H5.51397C3.58593 22.2881 2 20.7719 2 18.8881V5.78809ZM6.1229 20.2881H5.51397C4.62636 20.2881 4 19.6043 4 18.8881V5.78809C4 4.94562 4.65317 4.28809 5.51397 4.28809H14.6648C15.2628 4.28809 15.8239 4.551 16.2725 4.99716L19.2893 7.99716C19.3074 8.0152 19.3262 8.03254 19.3457 8.04913C19.7908 8.42848 20 8.93017 20 9.58809V18.7881C20 19.6306 19.3468 20.2881 18.486 20.2881H17.8771V16.3881C17.8771 14.9306 16.7202 13.7881 15.2682 13.7881H8.73184C7.27979 13.7881 6.1229 14.9306 6.1229 16.3881V20.2881Z" fill="black"/>
</svg>

<svg xmlns="http://www.w3.org/2000/svg" fill="none" viewBox="0 0 24 25"><path fill="#000" fill-rule="evenodd" d="M2 5.788c0-1.957 1.56-3.5 3.514-3.5h9.15c1.213 0 2.26.537 3.019 1.291l2.991 2.975C21.614 7.37 22 8.458 22 9.588v9.2c0 1.958-1.56 3.5-3.514 3.5h-1.609a1 1 0 0 1-1-1v-4.9c0-.342-.25-.6-.609-.6H8.732a.585.585 0 0 0-.61.6v3.9h5.638a1 1 0 1 1 0 2H5.514c-1.928 0-3.514-1.516-3.514-3.4zm4.123 14.5h-.609c-.888 0-1.514-.684-1.514-1.4v-13.1c0-.842.653-1.5 1.514-1.5h9.15c.599 0 1.16.263 1.609.71l3.016 3 .057.051c.445.38.654.881.654 1.54v9.2c0 .842-.653 1.5-1.514 1.5h-.609v-3.9c0-1.458-1.157-2.6-2.609-2.6H8.732a2.584 2.584 0 0 0-2.61 2.6z" clip-rule="evenodd"/></svg>
